components/Icon/icons/php.svg

<svg width="96" height="50" viewBox="0 0 96 50" fill="none" xmlns="http://www.w3.org/2000/svg">
<g clip-path="url(#clip0)">
<path d="M47.619 49.8519C73.9183 49.8519 95.2381 38.6921 95.2381 24.9259C95.2381 11.1597 73.9183 0 47.619 0C21.3198 0 0 11.1597 0 24.9259C0 38.6921 21.3198 49.8519 47.619 49.8519Z" fill="url(#paint0_radial)"/>
<path d="M47.619 48C72.891 48 93.378 37.6694 93.378 24.9259C93.378 12.1825 72.891 1.85187 47.619 1.85187C22.3471 1.85187 1.86011 12.1825 1.86011 24.9259C1.86011 37.6694 22.3471 48 47.619 48Z" fill="#6181B6"/>
<path d="M56.8824 32.4074L59.1518 20.7778C59.6726 18.1482 59.2262 16.1852 57.8869 14.963C56.5848 13.7778 54.3527 13.1852 51.0789 13.1852H47.1354L48.2515 7.40744C48.2887 7.18522 48.2515 6.963 48.1027 6.77781C47.9539 6.59263 47.7679 6.51855 47.5447 6.51855H42.1131C41.7411 6.51855 41.4435 6.77781 41.3691 7.11115L38.9509 19.4445C38.7277 18.0371 38.2069 16.8519 37.314 15.8889C35.7143 14.0741 33.2217 13.1482 29.8363 13.1482H19.3824C19.0104 13.1482 18.7128 13.4074 18.6384 13.7408L13.7649 38.7778C13.7277 39 13.7649 39.2223 13.9137 39.4074C14.0625 39.5926 14.2485 39.6667 14.4717 39.6667H19.9405C20.3125 39.6667 20.6101 39.4074 20.6845 39.0741L21.875 33.0371H25.9301C28.0506 33.0371 29.8735 32.8148 31.25 32.3704C32.7009 31.8889 34.003 31.1111 35.1563 30.0371C36.0863 29.1852 36.8676 28.2223 37.4628 27.1852L36.4955 32.1852C36.4583 32.4074 36.4955 32.6297 36.6444 32.8148C36.7932 33 36.9792 33.0741 37.2024 33.0741H42.6339C43.006 33.0741 43.3036 32.8148 43.378 32.4815L46.0566 18.7778H49.7768C51.3765 18.7778 51.8229 19.0741 51.9717 19.2223C52.0833 19.3334 52.3066 19.7778 52.0461 21.1482L49.8884 32.2223C49.8512 32.4445 49.8884 32.6667 50.0372 32.8519C50.186 33.0371 50.372 33.1111 50.5952 33.1111H56.1756C56.5104 33 56.808 32.7408 56.8824 32.4074ZM31.7336 22.7778C31.3988 24.5186 30.7664 25.7778 29.8363 26.4815C28.9063 27.1852 27.381 27.5556 25.372 27.5556H22.9539L24.7024 18.5926H27.8274C30.1339 18.5926 31.064 19.0741 31.436 19.4815C31.9196 20.0741 32.0313 21.2223 31.7336 22.7778V22.7778Z" fill="white"/>
<path d="M80.0968 15.8889C78.4971 14.0741 76.0045 13.1482 72.6191 13.1482H62.0908C61.7188 13.1482 61.4212 13.4075 61.3468 13.7408L56.4733 38.7408C56.4361 38.963 56.4733 39.1852 56.6221 39.3704C56.7709 39.5556 56.9569 39.6297 57.1801 39.6297H62.6489C63.0209 39.6297 63.3185 39.3704 63.3929 39.0371L64.5834 33H68.6384C70.759 33 72.5819 32.7778 73.9584 32.3334C75.4093 31.8519 76.7114 31.0741 77.8646 30C78.8319 29.1112 79.6503 28.1112 80.2456 27.0371C80.8408 25.963 81.2872 24.7778 81.5477 23.4815C82.1801 20.2593 81.6965 17.7408 80.0968 15.8889V15.8889ZM74.4048 22.7778C74.07 24.5186 73.4375 25.7778 72.5075 26.4815C71.5774 27.1852 70.0521 27.5556 68.0432 27.5556H65.625L67.3736 18.5926H70.4986C72.8051 18.5926 73.7352 19.0741 74.1072 19.4815C74.628 20.0741 74.7396 21.2223 74.4048 22.7778Z" fill="white"/>
<path d="M27.8274 17.8519C29.9107 17.8519 31.2872 18.2222 31.994 19C32.7009 19.7778 32.8497 21.0741 32.4777 22.926C32.1056 24.8519 31.3616 26.2593 30.2827 27.0741C29.2039 27.8889 27.5669 28.2963 25.372 28.2963H22.061L24.1071 17.8519H27.8274V17.8519ZM14.5089 38.8889H19.9777L21.2797 32.2593H25.9672C28.0506 32.2593 29.7247 32.0371 31.064 31.5926C32.4033 31.1482 33.5937 30.4445 34.7098 29.4074C35.6399 28.5556 36.3839 27.6297 36.9419 26.6297C37.5 25.6297 37.9092 24.5185 38.1324 23.2963C38.7277 20.3334 38.2812 18.0371 36.8303 16.3704C35.3794 14.7037 33.0729 13.8889 29.9107 13.8889H19.3824L14.5089 38.8889Z" fill="#000004"/>
<path d="M42.1502 7.25928H47.5818L46.2797 13.8889H51.116C54.1666 13.8889 56.25 14.4074 57.4032 15.4815C58.5565 16.5556 58.8913 18.2593 58.4449 20.6296L56.1755 32.2593H50.6696L52.8273 21.1852C53.0877 19.9259 52.9761 19.0741 52.5669 18.6296C52.1577 18.1852 51.2276 17.9259 49.8511 17.9259H45.4985L42.7083 32.2593H37.2767L42.1502 7.25928V7.25928Z" fill="#000004"/>
<path d="M70.4985 17.8519C72.5818 17.8519 73.9583 18.2222 74.6652 19C75.372 19.7778 75.5208 21.0741 75.1488 22.926C74.7768 24.8519 74.0327 26.2593 72.9539 27.0741C71.875 27.8889 70.2381 28.2963 68.0431 28.2963H64.7321L66.7783 17.8519H70.4985ZM57.1801 38.8889H62.6488L63.9509 32.2593H68.6384C70.7217 32.2593 72.3958 32.0371 73.7351 31.5926C75.0744 31.1482 76.2649 30.4445 77.3809 29.4074C78.311 28.5556 79.055 27.6297 79.6131 26.6297C80.1711 25.6297 80.5803 24.5185 80.8036 23.2963C81.3988 20.3334 80.9524 18.0371 79.5015 16.3704C78.0506 14.7037 75.744 13.8889 72.5818 13.8889H62.0536L57.1801 38.8889Z" fill="#000004"/>
</g>
<defs>
<radialGradient id="paint0_radial" cx="0" cy="0" r="1" gradientUnits="userSpaceOnUse" gradientTransform="translate(28.5906 8.76574) scale(62.5355 62.2576)">
<stop stop-color="white"/>
<stop offset="0.5" stop-color="#4C6B97"/>
<stop offset="1" stop-color="#231F20"/>
</radialGradient>
<clipPath id="clip0">
<rect width="95.2381" height="50" fill="white"/>
</clipPath>
</defs>
</svg>

<svg xmlns="http://www.w3.org/2000/svg" viewBox="0 0 96 50" width="100%" height="100%" fill="none"  xmlns:v="https://vecta.io/nano"><g clip-path="url(#B)"><path d="M47.619 49.852c26.299 0 47.619-11.16 47.619-24.926S73.918 0 47.619 0 0 11.16 0 24.926s21.32 24.926 47.619 24.926z" fill="url(#A)"/><path d="M47.619 48c25.272 0 45.759-10.331 45.759-23.074S72.891 1.852 47.619 1.852 1.86 12.183 1.86 24.926 22.347 48 47.619 48z" fill="#6181b6"/><g fill="#fff"><path d="M56.882 32.407l2.269-11.63c.521-2.63.074-4.593-1.265-5.815-1.302-1.185-3.534-1.778-6.808-1.778h-3.943l1.116-5.778c.037-.222 0-.444-.149-.63a.67.67 0 0 0-.558-.259h-5.432a.76.76 0 0 0-.744.593L38.95 19.443c-.223-1.407-.744-2.593-1.637-3.556-1.6-1.815-4.092-2.741-7.478-2.741H19.382a.76.76 0 0 0-.744.593l-4.873 25.037c-.037.222 0 .444.149.63a.67.67 0 0 0 .558.259h5.469a.76.76 0 0 0 .744-.593l1.191-6.037h4.055c2.121 0 3.943-.222 5.32-.667 1.451-.481 2.753-1.259 3.906-2.333a11.97 11.97 0 0 0 2.307-2.852l-.967 5c-.037.222 0 .444.149.63a.67.67 0 0 0 .558.259h5.432a.76.76 0 0 0 .744-.593l2.679-13.704h3.72c1.6 0 2.046.296 2.195.445.112.111.335.555.074 1.926L49.89 32.22c-.037.222 0 .444.149.63a.67.67 0 0 0 .558.259h5.58c.335-.111.632-.37.707-.704zm-25.149-9.63c-.335 1.741-.967 3-1.897 3.704s-2.455 1.074-4.464 1.074h-2.418l1.749-8.963h3.125c2.307 0 3.237.482 3.609.889.484.593.595 1.741.298 3.296h0zm48.364-6.888c-1.6-1.815-4.092-2.741-7.478-2.741H62.091a.76.76 0 0 0-.744.593l-4.873 25c-.037.222 0 .444.149.63a.67.67 0 0 0 .558.259h5.469a.76.76 0 0 0 .744-.593L64.583 33h4.055c2.121 0 3.944-.222 5.32-.667 1.451-.481 2.753-1.259 3.906-2.333.967-.889 1.786-1.889 2.381-2.963a12.3 12.3 0 0 0 1.302-3.556c.632-3.222.149-5.741-1.451-7.593h0zm-5.692 6.889c-.335 1.741-.967 3-1.897 3.704s-2.455 1.074-4.464 1.074h-2.418l1.749-8.963H70.5c2.307 0 3.237.482 3.609.889.521.593.632 1.741.298 3.296z"/></g><g fill="#000004"><path d="M27.827 17.852c2.083 0 3.46.37 4.167 1.148s.856 2.074.484 3.926c-.372 1.926-1.116 3.333-2.195 4.148s-2.716 1.222-4.911 1.222h-3.311l2.046-10.444h3.72zM14.509 38.889h5.469l1.302-6.63h4.688c2.083 0 3.758-.222 5.097-.667s2.53-1.148 3.646-2.185c.93-.852 1.674-1.778 2.232-2.778s.967-2.111 1.191-3.333c.595-2.963.149-5.259-1.302-6.926s-3.757-2.482-6.92-2.482h-10.53l-4.873 25zM42.15 7.259h5.432l-1.302 6.63h4.836c3.051 0 5.134.519 6.287 1.593s1.488 2.778 1.042 5.148l-2.269 11.63H50.67l2.158-11.074c.26-1.259.149-2.111-.26-2.556s-1.339-.704-2.716-.704h-4.353l-2.79 14.333h-5.432l4.874-25zm28.349 10.593c2.083 0 3.46.37 4.167 1.148s.856 2.074.484 3.926c-.372 1.926-1.116 3.333-2.195 4.148s-2.716 1.222-4.911 1.222h-3.311l2.046-10.444h3.72zM57.18 38.889h5.469l1.302-6.63h4.688c2.083 0 3.757-.222 5.097-.667a9.78 9.78 0 0 0 3.646-2.185c.93-.852 1.674-1.778 2.232-2.778a10.78 10.78 0 0 0 1.191-3.333c.595-2.963.149-5.259-1.302-6.926s-3.757-2.482-6.92-2.482H62.054l-4.873 25z"/></g></g><defs><radialGradient id="A" cx="0" cy="0" r="1" gradientUnits="userSpaceOnUse" gradientTransform="translate(28.5906 8.76574) scale(62.5355 62.2576)"><stop stop-color="#fff"/><stop offset=".5" stop-color="#4c6b97"/><stop offset="1" stop-color="#231f20"/></radialGradient><clipPath id="B"><path fill="#fff" d="M0 0h95.238v50H0z"/></clipPath></defs></svg>
